X:1
T:Title
%%score { ( 1 3 5 ) | ( 2 4 ) }
L:1/8
Q:1/4=100
M:4/4
K:C
V:1 treble nm="Grand Piano"
V:3 treble 
V:5 treble 
V:2 bass 
V:4 bass 
V:1
 [Ec]2 [EB]>c [Ed]2 [Ec]2 | [EG]2 [_E^F][=EG] [=FA]2 [EG]2 | [DF]2 [^CE]>[DF] [GB]2 [FA]2 | %3
w: Ira~B.~Wilson * * * *|||
 [DF]2 [B,G]>[DF] z2 G,2 | E2 ^F>^G [CA]2 A2 | A2 B>A c2 G2 | ^F2 [CFA]2 [Fc]2 [DB]>A | d2 d2 d4 | %8
w: |||||
 [EG]2 [Ee]2 [Ec]2 [EG]2 | z z/ A/ d>e d2- [^Fd]2 | G2 d2 B2 G2 | z z/ G/ c>d c2- [Ec]2 | %12
w: ||||
 [Ec]2 [Ec]2 c2 B2 | A2 A2 A2 G2 | ^F2 [FA]2 [Fd]2 [FA]2 | c2 B2 B>A G2 | z2 C2 z z/ A/ G>A | %17
w: |||||
 [EG]4 [Ec]4 | [Ac]6 z2 | [^Ge]6 E,2 | e2 A>A _B2 A2 | [^Fd]2 [FA]>[FA] [=FB]2 [Gd]2 | %22
w: |||||
 [Gc]2 [Ad]>[Ad] [Ge]2 [Fd]2 | [Ec]6 z2 |] %24
w: ||
V:2
 [C,G,]2 [G,,G,]2 [C,G,]2 [G,,G,]2 | [C,G,]2 [G,,G,]2 [C,G,]2 [G,,G,]2 | %2
 [B,,G,]2 [G,,G,]2 [D,G,]2 [G,,G,]2 | [B,,G,]2 [G,,G,]2 [C,G,]2 G,,2 | %4
 [E,^G,D]2 [E,B,D]2 [A,,A,]2 [A,CE]2 | [^F,C_E]2 [F,CE]2 [G,C=E]2 [G,CE]2 | %6
 [D,CD]2 z z/[K:treble] B/[K:bass] [D,A,]2 z z/[K:treble] C/ | [G,B,G]2 [A,C^F]2 [G,B,=F]4 | %8
 [C,G,]2 [C,G,]2 [C,G,]2 [C,C]2 | [D,C]2 [D,C]2 [D,C]2 [D,C]2 | %10
 [G,B,F]2 [G,B,F]2 [G,DF]2 [G,B,F]2 | [C,G,C]2 [C,G,]2 [C,G,]2 [C,G,]2 | %12
 [A,,A,]2 [A,,A,]2 [E,^G,D]2 [E,G,D]2 | [F,A,C]2 [F,A,C]2 [E,A,^C]2 [E,A,C]2 | %14
 [D,A,D]2 [D,D]2 [D,C]2 [D,C]2 | [G,DF]2 [G,DF]2 [G,DF]>[G,CF] [G,B,F]2 | C,2 G,2 G,,2 [G,CE]2 | %17
 C,2 G,2 E,2 C,2 | F,,2 F,2 z ^G [F,A,]2 | [E,B,]2 B,2 ^G,2 z2 | %20
 [A,^CG]2 [A,CG]>[A,CG] [A,CG]2 [A,CG]2 | [D,C]2 [D,C]>[D,C] [G,D]2 [F,B,]2 | %22
 [E,C]2 [F,C]>[F,C] [G,C]2 [G,B,]2 | [C,G,C]6 z2 |] %24
V:3
 x8 | x8 | x8 | z4 [CE]4 | x8 | x8 | z4 z2 ^F2 | x8 | x8 | ^F2 F2 F2 z2 | x8 | E2 E2 E2 z2 | x8 | %13
 x8 | x8 | x8 | [EG]6 z2 | x8 | z2 [A,C]2 z B [Ac]>[Ad] | x8 | x8 | x8 | x8 | x8 |] %24
V:4
 x8 | x8 | x8 | x8 | x8 | x8 | z2 D,2[K:treble][K:bass] z2 D,2[K:treble] | x8 | x8 | x8 | x8 | x8 | %12
 x8 | x8 | x8 | x8 | x8 | x8 | z4 F,2 z2 | x8 | x8 | x8 | x8 | x8 |] %24
V:5
 x8 | x8 | x8 | x8 | x8 | x8 | x8 | x8 | x8 | x8 | x8 | x8 | x8 | x8 | x8 | x8 | x8 | x8 | %18
 z4 [A,C]2 z2 | x8 | x8 | x8 | x8 | x8 |] %24

